assets/bluetooth-fill.svg

<svg xmlns="http://www.w3.org/2000/svg" fill="none" viewBox="0 0 28 28">
  <path fill="#2A2238" fill-rule="evenodd" d="M14 0C6.26801 0 0 6.26801 0 14c0 7.732 6.26801 14 14 14 7.732 0 14-6.268 14-14 0-7.73199-6.268-14-14-14Zm.7337 6.40192L19.2337 9l-2.2847 1.3191-2.2153 1.2279V6.40192Zm-2.8856 6.74468L6.80353 9.61435c-.3393-.23758-.42176-.70524-.18418-1.04454.23758-.33931.70524-.42177 1.04455-.18419l5.5698 3.89998V5.01628c0-.53886.5833-.87564 1.05-.60621l6.9 3.98371c.4667.26943.4667.94301 0 1.21244l-2.2959 1.32558c-.0453.0431-.0968.0813-.1541.1131l-1.046.5798-2.9586 1.7081 2.7225 1.9063 3.7321 2.1547c.4667.2694.4667.943 0 1.2124l-6.9 3.9837c-.4667.2695-1.05-.0673-1.05-.6062v-7.8669l-.0186-.013-5.85149 3.2436c-.36228.2008-.81876.0699-1.01957-.2924-.20082-.3623-.06993-.8187.29235-1.0196l5.21171-2.8888Zm5.6044 3.9242-.8076-.5654-1.9112-1.1035v5.1962l4.5-2.5981-1.3749-.7938c-.1409-.0044-.2822-.0485-.4063-.1354Z" clip-rule="evenodd"/>
</svg>

<svg width="28" height="28" viewBox="0 0 28 28" fill="none" xmlns="http://www.w3.org/2000/svg">
<path fill-rule="evenodd" clip-rule="evenodd" d="M14 0C6.26801 0 0 6.26801 0 14C0 21.732 6.26801 28 14 28C21.732 28 28 21.732 28 14C28 6.26801 21.732 0 14 0ZM14.7337 6.40192L19.2337 9L16.949 10.3191L14.7337 11.547V6.40192ZM11.8481 13.1466L6.80353 9.61435C6.46423 9.37677 6.38177 8.90911 6.61935 8.56981C6.85693 8.2305 7.32459 8.14804 7.6639 8.38562L13.2337 12.2856V5.01628C13.2337 4.47742 13.817 4.14064 14.2837 4.41007L21.1837 8.39378C21.6504 8.66321 21.6504 9.33679 21.1837 9.60622L18.8878 10.9318C18.8425 10.9749 18.791 11.0131 18.7337 11.0449L17.6877 11.6247L14.7291 13.3328L17.4516 15.2391L21.1837 17.3938C21.6504 17.6632 21.6504 18.3368 21.1837 18.6062L14.2837 22.5899C13.817 22.8594 13.2337 22.5226 13.2337 21.9837V14.1168L13.2151 14.1038L7.36361 17.3474C7.00133 17.5482 6.54485 17.4173 6.34404 17.055C6.14322 16.6927 6.27411 16.2363 6.63639 16.0354L11.8481 13.1466ZM17.4525 17.0708L16.6449 16.5054L14.7337 15.4019V20.5981L19.2337 18L17.8588 17.2062C17.7179 17.2018 17.5766 17.1577 17.4525 17.0708Z" fill="#2A2238"/>
</svg>
